X:2635
L:1/8
Q:1/4=120
M:3/4
K:A
"^'Brisk, not fast""^A" AB | c2 [ee]2 [ee]2 | !slide!cB A2 AB | c2 [ee]2 [ee]2 | !slide!c2- cB AB | 
 c2 [ee]2 [ee]2 | !slide!cB A2 AF | [EA]2 [FA]2 [AA]2 | [AA]4 ||"^B"S [AA][AA] |: 
 [CE]2 [CE][CE] ([A,-F][A,A]) | [A,E]2 ([CE-]2 [A,-E]2) | ([A,A-]2) [EA]2 AA | 
 [Be-][ce]- [ce][Be-] [ce][ce] | [Be]2 [Ae]2 [Ae]2 | F2 E2 [CE][CE] | [A,E]2 F2 [AA]2 | 
 [AA]4 [AA][AA] ::"^C" [ce-][ee]"^+" e2"^+" e2 |{B} [ce-][Be] [Ae]2 [Ae][Ae] | 
 [ce-][ee]"^+" e2"^+" e2 | [ce]2- [ce][Be] [Ae][Be] | [ce-][ee]"^+" e2"^+" e2 | 
{B} [ce-][Be] [Ae]2 [Ae][Ae] | [EA]2 [FA][AA] [AA]2 |1 [AA]2- [A,A]2 [Ae][Be] :|2 [AA]2- [A,A]2S ||

